svg/bank-11.svg

<?xml version="1.0" encoding="utf-8"?>
<!-- Generator: Adobe Illustrator 19.2.1, SVG Export Plug-In . SVG Version: 6.00 Build 0)  -->
<!DOCTYPE svg PUBLIC "-//W3C//DTD SVG 1.1//EN" "http://www.w3.org/Graphics/SVG/1.1/DTD/svg11.dtd">
<svg version="1.1"
	 id="svg4764" inkscape:version="0.91+devel+osxmenu r12911" sodipodi:docname="bank-11.svg" xmlns:cc="http://creativecommons.org/ns#" xmlns:dc="http://purl.org/dc/elements/1.1/" xmlns:inkscape="http://www.inkscape.org/namespaces/inkscape" xmlns:rdf="http://www.w3.org/1999/02/22-rdf-syntax-ns#" xmlns:sodipodi="http://sodipodi.sourceforge.net/DTD/sodipodi-0.dtd" xmlns:svg="http://www.w3.org/2000/svg"
	 xmlns="http://www.w3.org/2000/svg" xmlns:xlink="http://www.w3.org/1999/xlink" x="0px" y="0px" width="11px" height="11px"
	 viewBox="0 0 11 11" style="enable-background:new 0 0 11 11;" xml:space="preserve">
<path id="path5622" d="M1,2C0,2,0,3,0,3v5c0,1,1,1,1,1h9c1,0,1-1,1-1V3c0,0,0-1-1-1H1z M1,3h1.5C2.7761,3,3,3.2239,3,3.5
	S2.7761,4,2.5,4S2,3.7761,2,3.5L1.5,4C1.7761,4,2,4.2239,2,4.5S1.7761,5,1.5,5S1,4.7761,1,4.5V3z M5.5,3c1.1046,0,2,1.1193,2,2.5
	S6.6046,8,5.5,8s-2-1.1193-2-2.5S4.3954,3,5.5,3z M8.5,3H10v1.5C10,4.7761,9.7761,5,9.5,5S9,4.7761,9,4.5S9.2239,4,9.5,4L9,3.5
	C9,3.7761,8.7761,4,8.5,4S8,3.7761,8,3.5S8.2239,3,8.5,3z M1.5,6C1.7761,6,2,6.2239,2,6.5S1.7761,7,1.5,7L2,7.5
	C2,7.2239,2.2239,7,2.5,7S3,7.2239,3,7.5S2.7761,8,2.5,8H1V6.5C1,6.2239,1.2239,6,1.5,6z M9.5,6C9.7761,6,10,6.2239,10,6.5V8H8.5
	C8.2239,8,8,7.7761,8,7.5S8.2239,7,8.5,7S9,7.2239,9,7.5L9.5,7C9.2239,7,9,6.7761,9,6.5S9.2239,6,9.5,6z"/>
<path id="path5835" d="M4.9023,4.25C4.8261,4.321,4.7584,4.4051,4.7012,4.5h1.5977c-0.0572-0.0949-0.125-0.179-0.2012-0.25H4.9023z
	 M4.5859,4.75C4.5575,4.8303,4.5359,4.9141,4.5215,5h1.959C6.4661,4.9141,6.4445,4.8303,6.416,4.75H4.5859z M4.5,5.25
	C4.4998,5.3339,4.5063,5.4177,4.5195,5.5h1.959C6.4924,5.4178,6.4996,5.334,6.5,5.25H4.5z M4.5859,5.75
	C4.6171,5.8387,4.6564,5.9226,4.7031,6h1.5957c0.046-0.0775,0.0847-0.1614,0.1152-0.25H4.5859z M4.9023,6.25
	c0.0109,0.0107,0.022,0.0211,0.0332,0.0312L4.5,6.5h2L6.0645,6.2812C6.0757,6.2711,6.0868,6.2607,6.0977,6.25H4.9023z M4.582,6.75
	C4.611,6.8289,4.638,6.9091,4.6914,7h1.627c0.0524-0.091,0.0778-0.1711,0.1055-0.25H4.582z M4.8926,7.25
	C5.0395,7.3915,5.2332,7.5,5.5,7.5c0.2739,0,0.4701-0.1085,0.6172-0.25H4.8926z"/>
</svg>

<svg xmlns="http://www.w3.org/2000/svg" width="11" height="11">
    <path d="M1 2C0 2 0 3 0 3v5c0 1 1 1 1 1h9c1 0 1-1 1-1V3s0-1-1-1H1zm0 1h1.5a.5.5 0 1 1-.5.5l-.5.5a.5.5 0 1 1-.5.5V3zm4.5 0c1.105 0 2 1.12 2 2.5S6.605 8 5.5 8s-2-1.12-2-2.5.895-2.5 2-2.5zm3 0H10v1.5a.5.5 0 1 1-.5-.5L9 3.5a.5.5 0 1 1-.5-.5zm-7 3a.5.5 0 0 1 0 1l.5.5a.5.5 0 1 1 .5.5H1V6.5a.5.5 0 0 1 .5-.5zm8 0a.5.5 0 0 1 .5.5V8H8.5a.5.5 0 1 1 .5-.5l.5-.5a.5.5 0 0 1 0-1z"/>
    <path d="M4.902 4.25a1.157 1.157 0 0 0-.2.25h1.597a1.158 1.158 0 0 0-.201-.25H4.902zm-.316.5c-.029.08-.05.164-.065.25h1.96a1.479 1.479 0 0 0-.065-.25h-1.83zm-.086.5c0 .084.006.168.02.25h1.959c.013-.082.02-.166.021-.25h-2zm.086.5c.031.089.07.173.117.25H6.3c.046-.077.084-.161.115-.25H4.586zm.316.5l.034.031L4.5 6.5h2l-.436-.219.034-.031H4.902zm-.32.5c.029.079.056.16.11.25h1.626c.053-.091.078-.171.106-.25H4.582zm.31.5c.147.141.341.25.608.25.274 0 .47-.108.617-.25H4.893z"/>
</svg>
